X:1055
T:Pollonesse 1832-04
O:Södermanland
R:Slängpolska
B:Notbok 1832 från Sörmlands museum
N:[[http://www.sormlandsmusikarkiv.se/noter/1832/1832.html]]
M:3/4
L:1/8
Z:Jonas Brunskog (via midi)
Q:1/4=115
K:G
|:dd gf ef|ge dc Bc|dd gf ef|g3/2e/2 d2 z2:|
|:cc e2 c2|cB/2c/2 d2 B2|BA AB cA|AG G2 z2:|
(:musicend:)

(:music:)
